icons/zcool-fill.svg

<svg xmlns="http://www.w3.org/2000/svg" width="24" height="24" fill="none"><g clip-path="url(#a)"><g><path fill="#121212" d="M9.902 21.839C8.86416 21.8389 7.83651 21.6343 6.87773 21.237C5.91894 20.8398 5.0478 20.2575 4.31403 19.5236C3.58026 18.7896 2.99824 17.9183 2.6012 16.9594C2.20416 16.0005 1.99987 14.9728 2 13.935C2 10.29 4.467 7.06 7.824 6.31C11.745 5.43 13.528 4.742 14.9 2C15.898 3.935 15.223 5.71 14.9 6.677C19.598 5.548 21.271 3.397 21.674 3.129C21.674 7.081 20.443 9.581 19.255 11.194C20.731 11.138 21.264 10.71 21.999 10.607C21.674 12.055 20.499 14.097 17.669 15.402C17.3269 17.2119 16.3636 18.8455 14.9453 20.0208C13.5271 21.196 11.7429 21.8391 9.901 21.839H9.902ZM13.612 15.387C13.612 15.71 13.559 15.871 13.209 15.871L10.059 15.873L13.019 12.625C13.879 11.765 13.879 11.335 13.879 10.237C13.879 9.903 13.831 9.52 13.927 9.187C13.974 9.043 13.879 8.995 13.736 9.043C13.401 9.138 12.828 9.138 11.873 9.138H7.575C7.336 9.138 7.24 8.995 7.336 8.804C7.336 8.756 7.336 8.613 7.24 8.613C6.62 8.899 6.476 10.189 6.524 11.001C6.524 11.431 6.763 11.67 7.097 11.67H10.488L7.002 15.395C6.762 15.682 6.524 16.064 6.524 16.589V17.64C6.524 18.118 6.811 18.404 7.336 18.5H13.324C13.879 18.5 14.257 18.267 14.257 17.645V16.516C14.257 16.308 14.257 15.548 13.612 15.387Z"/></g></g><defs><clipPath id="a"><rect width="24" height="24" fill="white"/></clipPath></defs></svg>

<svg width="24" height="24" fill="none" xmlns="http://www.w3.org/2000/svg"><g clip-path="url(#a)"><path d="M9.902 21.839A7.902 7.902 0 0 1 2 13.935C2 10.29 4.467 7.06 7.824 6.31 11.745 5.43 13.528 4.742 14.9 2c.998 1.935.323 3.71 0 4.677 4.698-1.129 6.371-3.28 6.774-3.548 0 3.952-1.231 6.452-2.419 8.065 1.476-.056 2.009-.484 2.744-.587-.325 1.448-1.5 3.49-4.33 4.795a7.905 7.905 0 0 1-7.768 6.437h.001Zm3.71-6.452c0 .323-.053.484-.403.484l-3.15.002 2.96-3.248c.86-.86.86-1.29.86-2.388 0-.334-.048-.717.048-1.05.047-.144-.048-.192-.191-.144-.335.095-.908.095-1.863.095H7.575c-.239 0-.335-.143-.239-.334 0-.048 0-.191-.096-.191-.62.286-.764 1.576-.716 2.388 0 .43.239.669.573.669h3.391l-3.486 3.725c-.24.287-.478.669-.478 1.194v1.051c0 .478.287.764.812.86h5.988c.555 0 .933-.233.933-.855v-1.129c0-.208 0-.968-.645-1.129Z" /></g><defs><clipPath id="a"><path fill="#fff" d="M0 0h24v24H0z"/></clipPath></defs></svg>
